<?xml version="1.0" encoding="UTF-8"?>
<map version="1.10" tiledversion="1.12.2" orientation="isometric" renderorder="right-down" width="50" height="50" tilewidth="256" tileheight="128" infinite="0" nextlayerid="7" nextobjectid="710">
 <editorsettings>
  <export format="tmx"/>
 </editorsettings>
 <tileset firstgid="1" source="teren.tsx"/>
 <tileset firstgid="4" source="objekti_posamicno.tsx"/>
 <tileset firstgid="11" source="voda.tsx"/>
 <layer id="1" name="trava" width="50" height="50" locked="1">
  <data encoding="csv">
1,1,1,1,1,1,1,1,1,1,1,1,1,1,1,1,1,1,1,1,1,1,1,1,1,1,1,1,1,1,1,1,1,1,1,1,1,1,1,1,1,1,1,1,1,1,1,1,1,1,
1,1,1,1,1,1,1,1,1,1,1,1,1,1,1,1,1,1,1,1,1,1,1,1,1,1,1,1,1,1,1,1,1,1,1,1,1,1,1,1,1,1,1,1,1,1,1,1,1,1,
1,1,1,1,1,1,1,1,1,1,1,1,1,1,1,1,1,1,1,1,1,1,1,1,1,1,1,1,1,1,1,1,1,1,1,1,1,1,1,1,1,1,1,1,1,1,1,1,1,1,
1,1,1,1,1,1,1,1,1,1,1,1,1,1,1,1,1,1,1,1,1,1,1,1,1,1,1,1,1,1,1,1,1,1,1,1,1,1,1,1,1,1,1,1,1,1,1,1,1,1,
1,1,1,1,1,1,1,1,1,1,1,1,1,1,1,1,1,1,1,1,1,1,1,1,1,1,1,1,1,1,1,1,1,1,1,1,1,1,1,1,1,1,1,1,1,1,1,1,1,1,
1,1,1,1,1,1,1,1,1,1,1,1,1,1,1,1,1,1,1,1,1,1,1,1,1,1,1,1,1,1,1,1,1,1,1,1,1,1,1,1,1,1,1,1,1,1,1,1,1,1,
1,1,1,1,1,1,1,1,1,1,1,1,1,1,1,1,1,1,1,1,1,1,1,1,1,1,1,1,1,1,1,1,1,1,1,1,1,1,1,1,1,1,1,1,1,1,1,1,1,1,
1,1,1,1,1,1,1,1,1,1,1,1,1,1,1,1,1,1,1,1,1,1,1,1,1,1,1,1,1,1,1,1,1,1,1,1,1,1,1,1,1,1,1,1,1,1,1,1,1,1,
1,1,1,1,1,1,1,1,1,1,1,1,1,1,1,1,1,1,1,1,1,1,1,1,1,1,1,1,1,1,1,1,1,1,1,1,1,1,1,1,1,1,1,1,1,1,1,1,1,1,
1,1,1,1,1,1,1,1,1,1,1,1,1,1,1,1,1,1,1,1,1,1,1,1,1,1,1,1,1,1,1,1,1,1,1,1,1,1,1,1,1,1,1,1,1,1,1,1,1,1,
1,1,1,1,1,1,1,1,1,1,1,1,1,1,1,1,1,1,1,1,1,1,1,1,1,1,1,1,1,1,1,1,1,1,1,1,1,1,1,1,1,1,1,1,1,1,1,1,1,1,
1,1,1,1,1,1,1,1,1,1,1,1,1,1,1,1,1,1,1,1,1,1,1,1,1,1,1,1,1,1,1,1,1,1,1,1,1,1,1,1,1,1,1,1,1,1,1,1,1,1,
1,1,1,1,1,1,1,1,1,1,1,1,1,1,1,1,1,1,1,1,1,1,1,1,1,1,1,1,1,1,1,1,1,1,1,1,1,1,1,1,1,1,1,1,1,1,1,1,1,1,
1,1,1,1,1,1,1,1,1,1,1,1,1,1,1,1,1,1,1,1,1,1,1,1,1,1,1,1,1,1,1,1,1,1,1,1,1,1,1,1,1,1,1,1,1,1,1,1,1,1,
1,1,1,1,1,1,1,1,1,1,1,1,1,1,1,1,1,1,1,1,1,1,1,1,1,1,1,1,1,1,1,1,1,1,1,1,1,1,1,1,1,1,1,1,1,1,1,1,1,1,
1,1,1,1,1,1,1,1,1,1,1,1,1,1,1,1,1,1,1,1,1,1,1,1,1,1,1,1,1,1,1,1,1,1,1,1,1,1,1,1,1,1,1,1,1,1,1,1,1,1,
1,1,1,1,1,1,1,1,1,1,1,1,1,1,1,1,1,1,1,1,1,1,1,1,1,1,1,1,1,1,1,1,1,1,1,1,1,1,1,1,1,1,1,1,1,1,1,1,1,1,
1,1,1,1,1,1,1,1,1,1,1,1,1,1,1,1,1,1,1,1,1,1,1,1,1,1,1,1,1,1,1,1,1,1,1,1,1,1,1,1,1,1,1,1,1,1,1,1,1,1,
1,1,1,1,1,1,1,1,1,1,1,1,1,1,1,1,1,1,1,1,1,1,1,1,1,1,1,1,1,1,1,1,1,1,1,1,1,1,1,1,1,1,1,1,1,1,1,1,1,1,
1,1,1,1,1,1,1,1,1,1,1,1,1,1,1,1,1,1,1,1,1,1,1,1,1,1,1,1,1,1,1,1,1,1,1,1,1,1,1,1,1,1,1,1,1,1,1,1,1,1,
1,1,1,1,1,1,1,1,1,1,1,1,1,1,1,1,1,1,1,1,1,1,1,1,1,1,1,1,1,1,1,1,1,1,1,1,1,1,1,1,1,1,1,1,1,1,1,1,1,1,
1,1,1,1,1,1,1,1,1,1,1,1,1,1,1,1,1,1,1,1,1,1,1,1,1,1,1,1,1,1,1,1,1,1,1,1,1,1,1,1,1,1,1,1,1,1,1,1,1,1,
1,1,1,1,1,1,1,1,1,1,1,1,1,1,1,1,1,1,1,1,1,1,1,1,1,1,1,1,1,1,1,1,1,1,1,1,1,1,1,1,1,1,1,1,1,1,1,1,1,1,
1,1,1,1,1,1,1,1,1,1,1,1,1,1,1,1,1,1,1,1,1,1,1,1,1,1,1,1,1,1,1,1,1,1,1,1,1,1,1,1,1,1,1,1,1,1,1,1,1,1,
1,1,1,1,1,1,1,1,1,1,1,1,1,1,1,1,1,1,1,1,1,1,1,1,1,1,1,1,1,1,1,1,1,1,1,1,1,1,1,1,1,1,1,1,1,1,1,1,1,1,
1,1,1,1,1,1,1,1,1,1,1,1,1,1,1,1,1,1,1,1,1,1,1,1,1,1,1,1,1,1,1,1,1,1,1,1,1,1,1,1,1,1,1,1,1,1,1,1,1,1,
1,1,1,1,1,1,1,1,1,1,1,1,1,1,1,1,1,1,1,1,1,1,1,1,1,1,1,1,1,1,1,1,1,1,1,1,1,1,1,1,1,1,1,1,1,1,1,1,1,1,
1,1,1,1,1,1,1,1,1,1,1,1,1,1,1,1,1,1,1,1,1,1,1,1,1,1,1,1,1,1,1,1,1,1,1,1,1,1,1,1,1,1,1,1,1,1,1,1,1,1,
1,1,1,1,1,1,1,1,1,1,1,1,1,1,1,1,1,1,1,1,1,1,1,1,1,1,1,1,1,1,1,1,1,1,1,1,1,1,1,1,1,1,1,1,1,1,1,1,1,1,
1,1,1,1,1,1,1,1,1,1,1,1,1,1,1,1,1,1,1,1,1,1,1,1,1,1,1,1,1,1,1,1,1,1,1,1,1,1,1,1,1,1,1,1,1,1,1,1,1,1,
1,1,1,1,1,1,1,1,1,1,1,1,1,1,1,1,1,1,1,1,1,1,1,1,1,1,1,1,1,1,1,1,1,1,1,1,1,1,1,1,1,1,1,1,1,1,1,1,1,1,
1,1,1,1,1,1,1,1,1,1,1,1,1,1,1,1,1,1,1,1,1,1,1,1,1,1,1,1,1,1,1,1,1,1,1,1,1,1,1,1,1,1,1,1,1,1,1,1,1,1,
1,1,1,1,1,1,1,1,1,1,1,1,1,1,1,1,1,1,1,1,1,1,1,1,1,1,1,1,1,1,1,1,1,1,1,1,1,1,1,1,1,1,1,1,1,1,1,1,1,1,
1,1,1,1,1,1,1,1,1,1,1,1,1,1,1,1,1,1,1,1,1,1,1,1,1,1,1,1,1,1,1,1,1,1,1,1,1,1,1,1,1,1,1,1,1,1,1,1,1,1,
1,1,1,1,1,1,1,1,1,1,1,1,1,1,1,1,1,1,1,1,1,1,1,1,1,1,1,1,1,1,1,1,1,1,1,1,1,1,1,1,1,1,1,1,1,1,1,1,1,1,
1,1,1,1,1,1,1,1,1,1,1,1,1,1,1,1,1,1,1,1,1,1,1,1,1,1,1,1,1,1,1,1,1,1,1,1,1,1,1,1,1,1,1,1,1,1,1,1,1,1,
1,1,1,1,1,1,1,1,1,1,1,1,1,1,1,1,1,1,1,1,1,1,1,1,1,1,1,1,1,1,1,1,1,1,1,1,1,1,1,1,1,1,1,1,1,1,1,1,1,1,
1,1,1,1,1,1,1,1,1,1,1,1,1,1,1,1,1,1,1,1,1,1,1,1,1,1,1,1,1,1,1,1,1,1,1,1,1,1,1,1,1,1,1,1,1,1,1,1,1,1,
1,1,1,1,1,1,1,1,1,1,1,1,1,1,1,1,1,1,1,1,1,1,1,1,1,1,1,1,1,1,1,1,1,1,1,1,1,1,1,1,1,1,1,1,1,1,1,1,1,1,
1,1,1,1,1,1,1,1,1,1,1,1,1,1,1,1,1,1,1,1,1,1,1,1,1,1,1,1,1,1,1,1,1,1,1,1,1,1,1,1,1,1,1,1,1,1,1,1,1,1,
1,1,1,1,1,1,1,1,1,1,1,1,1,1,1,1,1,1,1,1,1,1,1,1,1,1,1,1,1,1,1,1,1,1,1,1,1,1,1,1,1,1,1,1,1,1,1,1,1,1,
1,1,1,1,1,1,1,1,1,1,1,1,1,1,1,1,1,1,1,1,1,1,1,1,1,1,1,1,1,1,1,1,1,1,1,1,1,1,1,1,1,1,1,1,1,1,1,1,1,1,
1,1,1,1,1,1,1,1,1,1,1,1,1,1,1,1,1,1,1,1,1,1,1,1,1,1,1,1,1,1,1,1,1,1,1,1,1,1,1,1,1,1,1,1,1,1,1,1,1,1,
1,1,1,1,1,1,1,1,1,1,1,1,1,1,1,1,1,1,1,1,1,1,1,1,1,1,1,1,1,1,1,1,1,1,1,1,1,1,1,1,1,1,1,1,1,1,1,1,1,1,
1,1,1,1,1,1,1,1,1,1,1,1,1,1,1,1,1,1,1,1,1,1,1,1,1,1,1,1,1,1,1,1,1,1,1,1,1,1,1,1,1,1,1,1,1,1,1,1,1,1,
1,1,1,1,1,1,1,1,1,1,1,1,1,1,1,1,1,1,1,1,1,1,1,1,1,1,1,1,1,1,1,1,1,1,1,1,1,1,1,1,1,1,1,1,1,1,1,1,1,1,
1,1,1,1,1,1,1,1,1,1,1,1,1,1,1,1,1,1,1,1,1,1,1,1,1,1,1,1,1,1,1,1,1,1,1,1,1,1,1,1,1,1,1,1,1,1,1,1,1,1,
1,1,1,1,1,1,1,1,1,1,1,1,1,1,1,1,1,1,1,1,1,1,1,1,1,1,1,1,1,1,1,1,1,1,1,1,1,1,1,1,1,1,1,1,1,1,1,1,1,1,
1,1,1,1,1,1,1,1,1,1,1,1,1,1,1,1,1,1,1,1,1,1,1,1,1,1,1,1,1,1,1,1,1,1,1,1,1,1,1,1,1,1,1,1,1,1,1,1,1,1,
1,1,1,1,1,1,1,1,1,1,1,1,1,1,1,1,1,1,1,1,1,1,1,1,1,1,1,1,1,1,1,1,1,1,1,1,1,1,1,1,1,1,1,1,1,1,1,1,1,1
</data>
 </layer>
 <layer id="6" name="voda" width="50" height="50">
  <data encoding="csv">
26,26,26,26,26,26,26,26,26,26,26,26,26,26,26,26,26,26,26,26,26,26,26,26,26,26,26,26,26,26,26,26,26,26,26,26,26,26,26,26,26,26,26,26,26,26,26,26,26,26,
26,26,26,26,26,26,26,26,26,26,26,22,14,14,14,14,14,14,14,14,14,14,14,14,14,14,14,14,14,14,14,14,14,14,14,14,14,14,14,14,14,14,14,14,14,14,14,14,18,26,
26,26,26,26,26,26,26,26,26,26,26,20,0,0,0,0,0,0,0,0,0,0,0,0,0,0,0,0,0,0,0,0,0,0,0,0,0,0,0,0,0,0,0,0,0,0,0,0,17,26,
26,26,26,26,26,26,26,26,26,26,22,12,0,0,0,0,0,0,0,0,0,0,0,0,0,0,0,0,0,0,0,0,0,0,0,0,0,0,0,0,0,0,0,0,0,0,0,0,17,26,
26,26,26,26,26,26,26,26,26,22,12,0,0,0,0,0,0,0,0,0,0,0,0,0,0,0,0,0,0,0,0,0,0,0,0,0,0,0,0,0,0,0,0,0,0,0,0,0,17,26,
26,26,26,26,26,26,26,26,22,12,0,0,0,0,0,0,0,0,0,0,0,0,0,0,0,0,0,0,0,0,0,0,0,0,0,0,0,0,0,0,0,0,0,0,0,0,0,0,17,26,
26,26,26,26,26,26,26,26,20,0,0,0,0,0,0,0,0,0,0,0,0,0,0,0,0,0,0,0,0,0,0,0,0,0,0,0,0,0,0,0,0,0,0,0,0,0,0,0,17,26,
26,26,26,26,26,26,26,22,12,0,0,0,0,0,0,0,0,0,0,0,0,0,0,0,0,0,0,0,0,0,0,0,0,0,0,0,0,0,0,0,0,0,0,0,0,0,0,0,17,26,
26,26,26,26,26,26,22,12,0,0,0,0,0,0,0,0,0,0,0,0,0,0,0,0,0,0,0,0,0,0,0,0,0,0,0,0,0,0,0,0,0,0,0,0,0,0,0,0,17,26,
26,26,26,26,26,22,12,0,0,0,0,0,0,0,0,0,0,0,0,0,0,0,0,0,0,0,0,0,0,0,0,0,0,0,0,0,0,0,0,0,0,0,0,0,0,0,0,0,17,26,
26,26,26,22,14,12,0,0,0,0,0,0,0,0,0,0,0,0,0,0,0,0,0,0,0,0,0,0,0,0,0,0,0,0,0,0,0,0,0,0,0,0,0,0,0,0,0,0,17,26,
26,22,14,12,0,0,0,0,0,0,0,0,0,0,0,0,0,0,0,0,0,0,0,0,0,0,0,0,0,0,0,0,0,0,0,0,0,0,0,0,0,0,0,0,0,0,0,0,17,26,
26,20,0,0,0,0,0,0,0,0,0,0,0,0,0,0,0,0,0,0,0,0,0,0,0,0,0,0,0,0,0,0,0,0,0,0,0,0,0,0,0,0,0,0,0,0,0,0,17,26,
26,20,0,0,0,0,0,0,0,0,0,0,0,0,0,0,0,0,0,0,0,0,0,0,0,0,0,0,0,0,0,0,0,0,0,0,0,0,0,0,0,0,0,0,0,0,0,0,17,26,
26,20,0,0,0,0,0,0,0,0,0,0,0,0,0,0,0,0,0,0,0,0,0,0,0,0,0,0,0,0,0,0,0,0,0,0,0,0,0,0,0,0,0,0,0,0,0,0,17,26,
26,20,0,0,0,0,0,0,0,0,0,0,0,0,0,0,0,0,0,0,0,0,0,0,0,0,0,0,0,0,0,0,0,0,0,0,0,0,0,0,0,0,0,0,0,0,0,0,17,26,
26,20,0,0,0,0,0,0,0,0,0,0,0,0,0,0,0,0,0,0,0,0,0,0,0,0,0,0,0,0,0,0,0,0,0,0,0,0,0,0,0,0,0,0,0,0,0,0,17,26,
26,20,0,0,0,0,0,0,0,0,0,0,0,0,0,0,0,0,0,0,0,0,0,0,0,0,0,0,0,0,0,0,0,0,0,0,0,0,0,0,0,0,0,0,0,0,0,0,17,26,
26,20,0,0,0,0,0,0,0,0,0,0,0,0,0,0,0,0,0,0,0,0,0,0,0,0,0,0,0,0,0,0,0,0,0,0,0,0,0,0,0,0,0,0,0,0,0,0,17,26,
26,20,0,0,0,0,0,0,0,0,0,0,0,0,0,0,0,0,0,0,0,0,0,0,0,0,0,0,0,0,0,0,0,0,0,0,0,0,0,0,0,0,0,0,0,0,0,0,17,26,
26,20,0,0,0,0,0,0,0,0,0,0,0,0,0,0,0,0,0,0,0,0,0,0,0,0,0,0,0,0,0,0,0,0,0,0,0,0,0,0,0,0,0,0,0,0,0,0,17,26,
26,20,0,0,0,0,0,0,0,0,0,0,0,0,0,0,0,0,0,0,0,0,0,0,0,0,0,0,0,0,0,0,0,0,0,0,0,0,0,0,0,0,0,0,0,0,0,0,17,26,
26,20,0,0,0,0,0,0,0,0,0,0,0,0,0,0,0,0,0,0,0,0,0,0,0,0,0,0,0,0,0,0,0,0,0,0,0,0,0,0,0,0,0,0,0,0,0,0,17,26,
26,20,0,0,0,0,0,0,0,0,0,0,0,0,0,0,0,0,0,0,0,0,0,0,0,0,0,0,0,0,0,0,0,0,0,0,0,0,0,0,0,0,0,0,0,0,0,0,17,26,
26,20,0,0,0,0,0,0,0,0,0,0,0,0,0,0,0,0,0,0,0,0,0,0,0,0,0,0,0,0,0,0,0,0,0,0,0,0,0,0,0,0,0,0,0,0,0,0,17,26,
26,20,0,0,0,0,0,0,0,0,0,0,0,0,0,0,0,0,0,0,0,0,0,0,0,0,0,0,0,0,0,0,0,0,0,0,0,0,0,0,0,0,0,0,0,0,0,0,17,26,
26,20,0,0,0,0,0,0,0,0,0,0,0,0,0,0,0,0,0,0,0,0,0,0,0,0,0,0,0,0,0,0,0,0,0,0,0,0,0,0,0,0,0,0,0,0,0,0,17,26,
26,20,0,0,0,0,0,0,0,0,0,0,0,0,0,0,0,0,0,0,0,0,0,0,0,0,0,0,0,0,0,0,0,0,0,0,0,0,0,0,0,0,0,0,0,0,0,0,17,26,
26,20,0,0,0,0,0,0,0,0,0,0,0,0,0,0,0,0,0,0,0,0,0,0,0,0,0,0,0,0,0,0,0,0,0,0,0,0,0,0,0,0,0,0,0,0,0,0,17,26,
26,20,0,0,0,0,0,0,0,0,0,0,0,0,0,0,0,0,0,0,0,0,0,0,0,0,0,0,0,0,0,0,0,0,0,0,0,0,0,0,0,0,0,0,0,0,0,0,17,26,
26,20,0,0,0,0,0,0,0,0,0,0,0,0,0,0,0,0,0,0,0,0,0,0,0,0,0,0,0,0,0,0,0,0,0,0,0,0,0,0,0,0,0,0,0,0,0,0,17,26,
26,20,0,0,0,0,0,0,0,0,0,0,0,0,0,0,0,0,0,0,0,0,0,0,0,0,0,0,0,0,0,0,0,0,0,0,0,0,0,0,0,0,0,0,0,0,0,0,17,26,
26,20,0,0,0,0,0,0,0,0,0,0,0,0,0,0,0,0,0,0,0,0,0,0,0,0,0,0,0,0,0,0,0,0,0,0,0,0,0,0,0,0,0,0,0,0,0,0,17,26,
26,20,0,0,0,0,0,0,0,0,0,0,0,0,0,0,0,0,0,0,0,0,0,0,0,0,0,0,0,0,0,0,0,0,0,0,0,0,0,0,0,0,0,0,0,0,0,0,17,26,
26,20,0,0,0,0,0,0,0,0,0,0,0,0,0,0,0,0,0,0,0,0,0,0,0,0,0,0,0,0,0,0,0,0,0,0,0,0,0,0,0,0,0,0,0,0,0,0,17,26,
26,20,0,0,0,0,0,0,0,0,0,0,0,0,0,0,0,0,0,0,0,0,0,0,0,0,0,0,0,0,0,0,0,0,0,0,0,0,0,0,0,0,0,0,0,0,0,0,17,26,
26,20,0,0,0,0,0,0,0,0,0,0,0,0,0,0,0,0,0,0,0,0,0,0,0,0,0,0,0,0,0,0,0,0,0,0,0,0,0,0,0,0,0,0,0,0,0,0,17,26,
26,20,0,0,0,0,0,0,0,0,0,0,0,0,0,0,0,0,0,0,0,0,0,0,0,0,0,0,0,0,0,0,0,0,0,0,0,0,0,0,0,0,0,0,0,15,23,23,25,26,
26,20,0,0,0,0,0,0,0,0,0,0,0,0,0,0,0,0,0,0,0,0,0,0,0,0,0,0,0,0,0,0,0,0,0,0,0,0,0,0,0,0,0,0,15,25,26,26,26,26,
26,20,0,0,0,0,0,0,0,0,0,0,0,0,0,0,0,0,0,0,0,0,0,0,0,0,0,0,0,0,0,0,0,0,0,0,0,0,0,0,0,0,0,15,25,26,26,26,26,26,
26,20,0,0,0,0,0,0,0,0,0,0,0,0,0,0,0,0,0,0,0,0,0,0,0,0,0,0,0,0,0,0,0,0,0,0,0,0,0,0,0,0,15,25,26,26,26,26,26,26,
26,20,0,0,0,0,0,0,0,0,0,0,0,0,0,0,0,0,0,0,0,0,0,0,0,0,0,0,0,0,0,0,0,0,0,0,0,0,0,0,0,15,25,26,26,26,26,26,26,26,
26,20,0,0,0,0,0,0,0,0,0,0,0,0,0,0,0,0,0,0,0,0,0,0,0,0,0,0,0,0,0,0,0,0,0,0,0,0,0,0,15,25,26,26,26,26,26,26,26,26,
26,20,0,0,0,0,0,0,0,0,0,0,0,0,0,0,0,0,0,0,0,0,0,0,0,0,0,0,0,0,0,0,0,0,0,0,0,0,0,15,25,26,26,26,26,26,26,26,26,26,
26,20,0,0,0,0,0,0,0,0,0,0,0,0,0,0,0,0,0,0,0,0,0,0,0,0,0,0,0,0,0,0,0,0,0,0,0,0,15,25,26,26,26,26,26,26,26,26,26,26,
26,20,0,0,0,0,0,0,0,0,0,0,0,0,0,0,0,0,0,0,0,0,0,0,0,0,0,0,0,0,0,0,0,0,0,0,0,15,25,26,26,26,26,26,26,26,26,26,26,26,
26,20,0,0,0,0,0,0,0,0,0,0,0,0,0,0,0,0,0,0,0,0,0,0,0,0,0,0,0,0,0,0,0,0,0,0,0,17,26,26,26,26,26,26,26,26,26,26,26,26,
26,20,0,0,0,0,0,0,0,0,0,0,0,0,0,0,0,0,0,0,0,0,0,0,0,0,0,0,0,0,0,0,0,0,0,0,15,25,26,26,26,26,26,26,26,26,26,26,26,26,
26,24,23,23,23,23,23,23,23,23,23,23,23,23,23,23,23,23,23,23,23,23,23,23,23,23,23,23,23,23,23,23,23,23,23,23,25,26,26,26,26,26,26,26,26,26,26,26,26,26,
26,26,26,26,26,26,26,26,26,26,26,26,26,26,26,26,26,26,26,26,26,26,26,26,26,26,26,26,26,26,26,26,26,26,26,26,26,26,26,26,26,26,26,26,26,26,26,26,26,26
</data>
 </layer>
 <layer id="2" name="Poti" width="50" height="50">
  <data encoding="csv">
0,0,0,0,0,0,0,0,0,0,0,0,0,0,0,0,0,0,0,0,0,0,0,0,0,0,0,0,0,0,0,0,0,0,0,0,0,0,0,0,0,0,0,0,0,0,0,0,0,0,
0,0,0,0,0,0,0,0,0,0,0,0,0,0,0,0,0,0,0,0,0,0,0,0,0,0,0,0,0,0,0,0,0,0,0,0,0,0,0,0,0,0,0,0,0,0,0,0,0,0,
0,0,0,0,0,0,0,0,0,0,0,0,0,0,0,0,0,0,0,0,0,0,0,0,0,0,0,0,0,0,0,0,0,0,0,0,0,0,0,0,0,0,0,2,2,2,2,2,0,0,
0,0,0,0,0,0,0,0,0,0,0,0,0,0,0,0,0,0,0,0,0,0,0,0,0,0,0,0,0,0,0,0,0,0,0,0,0,0,0,0,0,0,0,2,2,2,2,2,0,0,
0,0,0,0,0,0,0,0,0,0,0,0,0,0,0,0,0,0,0,0,0,0,0,0,0,0,0,0,0,0,0,0,0,0,0,0,0,0,0,0,0,0,0,2,2,2,2,2,0,0,
0,0,0,0,0,0,0,0,0,0,0,0,0,0,0,0,0,0,0,0,0,0,0,0,0,0,0,0,0,0,0,0,0,0,0,0,0,0,0,0,0,0,0,2,2,2,2,2,0,0,
0,0,0,0,0,0,0,0,0,0,0,0,0,0,0,0,0,0,0,0,0,0,0,0,0,0,0,0,0,0,0,0,0,0,0,0,0,0,0,0,0,0,0,2,2,2,2,2,0,0,
0,0,0,0,0,0,0,0,0,0,0,0,0,0,0,0,0,0,0,0,0,0,0,0,0,0,0,0,0,0,0,0,0,0,0,0,0,0,0,0,0,0,0,0,0,0,0,0,0,0,
0,0,0,0,0,0,0,0,0,0,0,0,0,0,0,0,0,0,0,0,0,0,0,0,0,0,0,0,0,0,0,0,0,0,0,0,0,0,0,0,0,0,0,0,0,0,0,0,0,0,
0,0,0,0,0,0,0,0,0,0,0,0,0,0,0,0,0,0,0,0,0,0,0,0,0,0,0,0,0,0,0,0,0,0,0,0,0,0,0,0,0,0,0,0,0,0,0,0,0,0,
0,0,0,0,0,0,0,0,0,0,0,0,0,0,0,0,0,0,0,0,0,0,0,0,0,0,0,0,0,0,0,0,0,0,0,0,0,0,0,0,0,0,0,0,0,0,0,0,0,0,
0,0,0,0,0,0,0,0,0,0,0,0,0,0,0,0,0,0,0,0,0,0,0,0,0,0,0,0,0,0,0,0,0,0,0,0,0,0,0,0,0,0,0,0,0,0,0,0,0,0,
0,0,0,0,0,0,0,0,0,0,0,0,0,0,0,0,0,0,0,0,0,0,0,0,0,0,0,0,0,0,0,0,0,0,0,0,0,0,0,0,0,0,0,0,0,0,0,0,0,0,
0,0,0,0,0,0,0,0,0,0,0,0,0,0,0,0,0,0,0,0,0,0,0,0,0,0,0,0,0,0,0,0,0,0,0,0,0,0,0,0,0,0,0,0,0,0,0,0,0,0,
0,0,0,0,0,0,0,0,0,0,0,0,0,0,0,0,0,0,0,0,0,0,0,0,0,0,0,0,0,0,0,0,0,0,0,0,0,0,0,0,0,0,0,0,0,0,0,0,0,0,
0,0,0,0,0,0,0,0,0,0,0,0,0,0,0,0,0,0,0,0,0,0,0,0,0,0,0,0,0,0,0,0,0,0,0,0,0,0,0,0,0,0,0,0,0,0,0,0,0,0,
0,0,0,0,0,0,0,0,0,0,0,0,0,0,0,0,0,0,0,0,0,0,0,0,0,0,0,0,0,0,0,0,0,0,0,0,0,0,0,0,0,0,0,0,0,0,0,0,0,0,
0,0,0,0,0,0,0,0,0,0,0,0,0,0,0,0,0,0,0,0,0,0,0,0,0,0,0,0,0,0,0,0,0,0,0,0,0,0,0,0,0,0,0,0,0,0,0,0,0,0,
0,0,0,0,0,0,0,0,0,0,0,0,0,0,0,0,0,0,0,0,0,0,0,0,0,0,0,0,0,0,0,0,0,0,0,0,0,0,0,0,0,0,0,0,0,0,0,0,0,0,
0,0,0,0,0,0,0,0,0,0,0,0,0,0,0,0,0,0,0,0,0,0,0,0,0,0,0,0,0,0,0,0,0,0,0,0,0,0,0,0,0,0,0,0,0,0,0,0,0,0,
0,0,0,0,0,0,0,0,0,0,0,0,0,0,0,0,0,0,0,0,0,0,0,0,0,0,0,0,0,0,0,0,0,0,0,0,0,0,0,0,0,0,0,0,0,0,0,0,0,0,
0,0,0,0,0,0,0,0,0,0,0,0,0,0,0,0,0,0,0,0,0,0,0,0,0,0,0,0,0,0,0,0,0,0,0,0,0,0,0,0,0,0,0,0,0,0,0,0,0,0,
0,0,0,0,0,0,0,0,0,0,0,0,0,0,0,0,0,0,0,0,0,0,0,0,0,0,0,0,0,0,0,0,0,0,0,0,0,0,0,0,0,0,0,0,0,0,0,0,0,0,
0,0,0,0,0,0,0,0,0,0,0,0,0,0,0,0,0,0,0,0,0,0,0,0,0,0,0,0,0,0,0,0,0,0,0,0,0,0,0,0,0,0,0,0,0,0,0,0,0,0,
0,0,0,0,0,0,0,0,0,0,0,0,0,0,0,0,0,0,0,0,0,0,0,0,0,0,0,0,0,0,0,0,0,0,0,0,0,0,0,0,0,0,0,0,0,0,0,0,0,0,
0,0,0,0,0,0,0,0,0,0,0,0,0,0,0,0,0,0,0,0,0,0,0,0,0,0,0,0,0,0,0,0,0,0,0,0,0,0,0,0,0,0,0,0,0,0,0,0,0,0,
0,0,0,0,0,0,0,0,0,0,0,0,0,0,0,0,0,0,0,0,0,0,0,0,0,0,0,0,0,0,0,0,0,0,0,0,0,0,0,0,0,0,0,0,0,0,0,0,0,0,
0,0,0,0,0,0,0,0,0,0,0,0,0,0,0,0,0,0,0,0,0,0,0,0,0,0,0,0,0,0,0,0,0,0,0,0,0,0,0,0,0,0,0,0,0,0,0,0,0,0,
0,0,0,0,0,0,0,0,0,0,0,0,0,0,0,0,0,0,0,0,0,0,0,0,0,0,0,0,0,0,0,0,0,0,0,0,0,0,0,0,0,0,0,0,0,0,0,0,0,0,
0,0,0,0,0,0,0,0,0,0,0,0,0,0,0,0,0,0,0,0,0,0,0,0,0,0,0,0,0,0,0,0,0,0,0,0,0,0,0,0,0,0,0,0,0,0,0,0,0,0,
0,0,0,0,0,0,0,0,0,0,0,0,0,0,0,0,0,0,0,0,0,0,0,0,0,0,0,0,0,0,0,0,0,0,0,0,0,0,0,0,0,0,0,0,0,0,0,0,0,0,
0,0,0,0,0,0,0,0,0,0,0,0,0,0,0,0,0,0,0,0,0,0,0,0,0,0,0,0,0,0,0,0,0,0,0,0,0,0,0,0,0,0,0,0,0,0,0,0,0,0,
0,0,0,0,0,0,0,0,0,0,0,0,0,0,0,0,0,0,0,0,0,0,0,0,0,0,0,0,0,0,0,0,0,0,0,0,0,0,0,0,0,0,0,0,0,0,0,0,0,0,
0,0,0,0,0,0,0,0,0,0,0,0,0,0,0,0,0,0,0,0,0,0,0,0,0,0,0,0,0,0,0,0,0,0,0,0,0,0,0,0,0,0,0,0,0,0,0,0,0,0,
0,0,0,0,0,0,0,0,0,0,0,0,0,0,0,0,0,0,0,0,0,0,0,0,0,0,0,0,0,0,0,0,0,0,0,0,0,0,0,0,0,0,0,0,0,0,0,0,0,0,
0,0,0,0,0,0,0,0,0,0,0,0,0,0,0,0,0,0,0,0,0,0,0,0,0,0,0,0,0,0,0,0,0,0,0,0,0,0,0,0,0,0,0,0,0,0,0,0,0,0,
0,0,0,0,0,0,0,0,0,0,0,0,0,0,0,0,0,0,0,0,0,0,0,0,0,0,0,0,0,0,0,0,0,0,0,0,0,0,0,0,0,0,0,0,0,0,0,0,0,0,
0,0,0,0,0,0,0,0,0,0,0,0,0,0,0,0,0,0,0,0,0,0,0,0,0,0,0,0,0,0,0,0,0,0,0,0,0,0,0,0,0,0,0,0,0,0,0,0,0,0,
0,0,0,0,0,0,0,0,0,0,0,0,0,0,0,0,0,0,0,0,0,0,0,0,0,0,0,0,0,0,0,0,0,0,0,0,0,0,0,0,0,0,0,0,0,0,0,0,0,0,
0,0,0,0,0,0,0,0,0,0,0,0,0,0,0,0,0,0,0,0,0,0,0,0,0,0,0,0,0,0,0,0,0,0,0,0,0,0,0,0,0,0,0,0,0,0,0,0,0,0,
0,0,0,0,0,0,0,0,0,0,0,0,0,0,0,0,0,0,0,0,0,0,0,0,0,0,0,0,0,0,0,0,0,0,0,0,0,0,0,0,0,0,0,0,0,0,0,0,0,0,
0,0,0,0,0,0,0,0,0,0,0,0,0,0,0,0,0,0,0,0,0,0,0,0,0,0,0,0,0,0,0,0,0,0,0,0,0,0,0,0,0,0,0,0,0,0,0,0,0,0,
0,0,0,0,0,0,0,0,0,0,0,0,0,0,0,0,0,0,0,0,0,0,0,0,0,0,0,0,0,0,0,0,0,0,0,0,0,0,0,0,0,0,0,0,0,0,0,0,0,0,
0,0,2,2,2,2,2,2,0,0,0,0,0,0,0,0,0,0,0,0,0,0,0,0,0,0,0,0,0,0,0,0,0,0,0,0,0,0,0,0,0,0,0,0,0,0,0,0,0,0,
0,0,2,2,2,2,2,2,0,0,0,0,0,0,0,0,0,0,0,0,0,0,0,0,0,0,0,0,0,0,0,0,0,0,0,0,0,0,0,0,0,0,0,0,0,0,0,0,0,0,
0,0,2,2,2,2,2,2,0,0,0,0,0,0,0,0,0,0,0,0,0,0,0,0,0,0,0,0,0,0,0,0,0,0,0,0,0,0,0,0,0,0,0,0,0,0,0,0,0,0,
0,0,2,2,2,2,2,2,0,0,0,0,0,0,0,0,0,0,0,0,0,0,0,0,0,0,0,0,0,0,0,0,0,0,0,0,0,0,0,0,0,0,0,0,0,0,0,0,0,0,
0,0,2,2,2,2,2,2,0,0,0,0,0,0,0,0,0,0,0,0,0,0,0,0,0,0,0,0,0,0,0,0,0,0,0,0,0,0,0,0,0,0,0,0,0,0,0,0,0,0,
0,0,0,0,0,0,0,0,0,0,0,0,0,0,0,0,0,0,0,0,0,0,0,0,0,0,0,0,0,0,0,0,0,0,0,0,0,0,0,0,0,0,0,0,0,0,0,0,0,0,
0,0,0,0,0,0,0,0,0,0,0,0,0,0,0,0,0,0,0,0,0,0,0,0,0,0,0,0,0,0,0,0,0,0,0,0,0,0,0,0,0,0,0,0,0,0,0,0,0,0
</data>
 </layer>
 <layer id="3" name="Skale" width="50" height="50">
  <data encoding="csv">
0,0,0,0,0,0,0,0,0,0,0,0,0,0,0,0,0,0,0,0,0,0,0,0,0,0,0,0,0,0,0,0,0,0,0,0,0,0,0,0,0,0,0,0,0,0,0,0,0,0,
0,0,0,0,0,0,0,0,0,0,0,0,0,0,0,0,0,0,0,0,0,0,0,0,0,0,0,0,0,0,0,0,0,0,0,0,0,0,0,0,0,0,0,0,0,0,0,0,0,0,
0,0,0,0,0,0,0,0,0,0,0,0,0,0,0,0,0,0,0,0,0,0,0,0,0,0,0,0,0,0,0,0,0,0,0,0,0,0,0,0,0,0,0,0,0,0,0,0,0,0,
0,0,0,0,0,0,0,0,0,0,0,0,0,0,0,0,0,0,0,0,0,0,0,0,0,0,0,0,0,0,0,0,0,0,0,0,0,0,0,0,0,0,0,0,0,0,0,0,0,0,
0,0,0,0,0,0,0,0,0,0,0,0,0,0,0,0,0,0,0,0,0,0,0,0,0,0,0,0,0,0,0,0,0,0,0,0,0,0,0,0,0,0,0,0,0,0,0,0,0,0,
0,0,0,0,0,0,0,0,0,0,0,0,0,0,0,0,0,0,0,0,0,0,0,0,0,0,0,0,0,0,0,0,0,0,0,0,0,0,0,0,0,0,0,0,0,0,0,0,0,0,
0,0,0,0,0,0,0,0,0,0,0,0,0,0,0,0,0,0,0,0,0,0,0,0,0,0,0,0,0,0,0,0,0,0,0,0,0,0,0,0,0,0,0,0,0,0,0,0,0,0,
0,0,0,0,0,0,0,0,0,0,0,0,0,0,0,0,0,0,0,0,0,0,0,0,0,0,0,0,0,0,0,0,0,0,0,0,0,0,0,0,0,0,0,0,0,0,0,0,0,0,
0,0,0,0,0,0,0,0,0,0,0,0,0,0,0,0,0,0,0,0,0,0,0,0,0,0,0,0,0,0,0,0,0,0,0,0,0,0,0,0,0,0,0,0,0,0,0,0,0,0,
0,0,0,0,0,0,0,0,0,0,0,0,0,0,0,0,0,0,0,0,0,0,0,0,0,0,0,0,0,0,0,0,0,0,0,0,0,0,0,0,0,0,0,0,0,0,0,0,0,0,
0,0,0,0,0,0,0,0,0,0,0,0,0,0,0,0,0,0,0,0,0,0,0,0,0,0,0,0,0,0,0,0,0,0,0,0,0,0,0,0,0,0,0,0,0,0,0,0,0,0,
0,0,0,0,0,0,0,0,0,0,0,0,0,0,0,0,0,0,0,0,0,0,0,0,0,0,0,0,0,0,0,0,0,0,0,0,0,0,0,0,0,0,0,0,0,0,0,0,0,0,
0,0,0,0,0,0,0,0,0,0,0,0,0,0,0,0,0,0,0,0,0,0,0,0,0,0,0,0,0,0,0,0,0,0,0,0,0,0,0,0,0,0,0,0,0,0,0,0,0,0,
0,0,0,0,0,0,0,0,0,0,0,0,0,0,0,0,0,0,0,0,0,0,0,0,0,0,0,0,0,0,0,0,0,0,0,0,0,0,0,0,0,0,0,0,0,0,0,0,0,0,
0,0,0,0,0,0,0,0,0,0,0,0,0,0,0,0,0,0,0,0,0,0,0,0,0,0,0,0,0,0,0,0,0,0,0,0,0,0,0,0,0,0,0,0,0,0,0,0,0,0,
0,0,0,0,0,0,0,0,0,0,0,0,0,0,0,0,0,0,0,0,0,0,0,0,0,0,0,0,0,0,0,0,0,0,0,0,0,0,0,0,0,0,0,0,0,0,0,0,0,0,
0,0,0,0,0,0,0,0,0,0,0,0,0,0,0,0,0,0,0,0,0,0,0,0,0,0,0,0,0,0,0,0,0,0,0,0,0,0,0,0,0,0,0,0,0,0,0,0,0,0,
0,0,0,0,0,0,0,0,0,0,0,0,0,0,0,0,0,0,0,0,0,0,0,0,0,0,0,0,0,0,0,0,0,0,0,0,0,0,0,0,0,0,0,0,0,0,0,0,0,0,
0,0,0,0,0,0,0,0,0,0,0,0,0,0,0,0,0,0,0,0,0,0,0,0,0,0,0,0,0,0,0,0,0,0,0,0,0,0,0,0,0,0,0,0,0,0,0,0,0,0,
0,0,0,0,0,0,0,0,0,0,0,0,0,0,0,0,0,0,0,0,0,0,0,0,0,0,0,0,0,0,0,0,0,0,0,0,0,0,0,0,0,0,0,0,0,0,0,0,0,0,
0,0,0,0,0,0,0,0,0,0,0,0,0,0,0,0,0,0,0,0,0,0,0,0,0,0,0,0,0,0,0,0,0,0,0,0,0,0,0,0,0,0,0,0,0,0,0,0,0,0,
0,0,0,0,0,0,0,0,0,0,0,0,0,0,0,0,0,0,0,0,0,0,0,0,0,0,0,0,0,0,0,0,0,0,0,0,0,0,0,0,0,0,0,0,0,0,0,0,0,0,
0,0,0,0,0,0,0,0,0,0,0,0,0,0,0,0,0,0,0,0,0,0,0,0,0,0,0,0,0,0,0,0,0,0,0,0,0,0,0,0,0,0,0,0,0,0,0,0,0,0,
0,0,0,0,0,0,0,0,0,0,0,0,0,0,0,0,0,0,0,0,0,0,0,0,0,0,0,0,0,0,0,0,0,0,0,0,0,0,0,0,0,0,0,0,0,0,0,0,0,0,
0,0,0,0,0,0,0,0,0,0,0,0,0,0,0,0,0,0,0,0,0,0,0,0,0,0,0,0,0,0,0,0,0,0,0,0,0,0,0,0,0,0,0,0,0,0,0,0,0,0,
0,0,0,0,0,0,0,0,0,0,0,0,0,0,0,0,0,0,0,0,0,0,0,0,0,0,0,0,0,0,0,0,0,0,0,0,0,0,0,0,0,0,0,0,0,0,0,0,0,0,
0,0,0,0,0,0,0,0,0,0,0,0,0,0,0,0,0,0,0,0,0,0,0,0,0,0,0,0,0,0,0,0,0,0,0,0,0,0,0,0,0,0,0,0,0,0,0,0,0,0,
0,0,0,0,0,0,0,0,0,0,0,0,0,0,0,0,0,0,0,0,0,0,0,0,0,0,0,0,0,0,0,0,0,0,0,0,0,0,0,0,0,0,0,0,0,0,0,0,0,0,
0,0,0,0,0,0,0,0,0,0,0,0,0,0,0,0,0,0,0,0,0,0,0,0,0,0,0,0,0,0,0,0,0,0,0,0,0,0,0,0,0,0,0,0,0,0,0,0,0,0,
0,0,0,0,0,0,0,0,0,0,0,0,0,0,0,0,0,0,0,0,0,0,0,0,0,0,0,0,0,0,0,0,0,0,0,0,0,0,0,0,0,0,0,0,0,0,0,0,0,0,
0,0,0,0,0,0,0,0,0,0,0,0,0,0,0,0,0,0,0,0,0,0,0,0,0,0,0,0,0,0,0,0,0,0,0,0,0,0,0,0,0,0,0,0,0,0,0,0,0,0,
0,0,0,0,0,0,0,0,0,0,0,0,0,0,0,0,0,0,0,0,0,0,0,0,0,0,0,0,0,0,0,0,0,0,0,0,0,0,0,0,0,0,0,0,0,0,0,0,0,0,
0,0,0,0,0,0,0,0,0,0,0,0,0,0,0,0,0,0,0,0,0,0,0,0,0,0,0,0,0,0,0,0,0,0,0,0,0,0,0,0,0,0,0,0,0,0,0,0,0,0,
0,0,0,0,0,0,0,0,0,0,0,0,0,0,0,0,0,0,0,0,0,0,0,0,0,0,0,0,0,0,0,0,0,0,0,0,0,0,0,0,0,0,0,0,0,0,0,0,0,0,
0,0,0,0,0,0,0,0,0,0,0,0,0,0,0,0,0,0,0,0,0,0,0,0,0,0,0,0,0,0,0,0,0,0,0,0,0,0,0,0,0,0,0,0,0,0,0,0,0,0,
0,0,0,0,0,0,0,0,0,0,0,0,0,0,0,0,0,0,0,0,0,0,0,0,0,0,0,0,0,0,0,0,0,0,0,0,0,0,0,0,0,0,0,0,0,0,0,0,0,0,
0,0,0,0,0,0,0,0,0,0,0,0,0,0,0,0,0,0,0,0,0,0,0,0,0,0,0,0,0,0,0,0,0,0,0,0,0,0,0,0,0,0,0,0,0,0,0,0,0,0,
0,0,0,0,0,0,0,0,0,0,0,0,0,0,0,0,0,0,0,0,0,0,0,0,0,0,0,0,0,0,0,0,0,0,0,0,0,0,0,0,0,0,0,0,0,0,0,0,0,0,
0,0,0,0,0,0,0,0,0,0,0,0,0,0,0,0,0,0,0,0,0,0,0,0,0,0,0,0,0,0,0,0,0,0,0,0,0,0,0,0,0,0,0,0,0,0,0,0,0,0,
0,0,0,0,0,0,0,0,0,0,0,0,0,0,0,0,0,0,0,0,0,0,0,0,0,0,0,0,0,0,0,0,0,0,0,0,0,0,0,0,0,0,0,0,0,0,0,0,0,0,
0,0,0,0,0,0,0,0,0,0,0,0,0,0,0,0,0,0,0,0,0,0,0,0,0,0,0,0,0,0,0,0,0,0,0,0,0,0,0,0,0,0,0,0,0,0,0,0,0,0,
0,0,0,0,0,0,0,0,0,0,0,0,0,0,0,0,0,0,0,0,0,0,0,0,0,0,0,0,0,0,0,0,0,0,0,0,0,0,0,0,0,0,0,0,0,0,0,0,0,0,
0,0,0,0,0,0,0,0,0,0,0,0,0,0,0,0,0,0,0,0,0,0,0,0,0,0,0,0,0,0,0,0,0,0,0,0,0,0,0,0,0,0,0,0,0,0,0,0,0,0,
0,0,0,0,0,0,0,0,0,0,0,0,0,0,0,0,0,0,0,0,0,0,0,0,0,0,0,0,0,0,0,0,0,0,0,0,0,0,0,0,0,0,0,0,0,0,0,0,0,0,
0,0,0,0,0,0,0,0,0,0,0,0,0,0,0,0,0,0,0,0,0,0,0,0,0,0,0,0,0,0,0,0,0,0,0,0,0,0,0,0,0,0,0,0,0,0,0,0,0,0,
0,0,0,0,0,0,0,0,0,0,0,0,0,0,0,0,0,0,0,0,0,0,0,0,0,0,0,0,0,0,0,0,0,0,0,0,0,0,0,0,0,0,0,0,0,0,0,0,0,0,
0,0,0,0,0,0,0,0,0,0,0,0,0,0,0,0,0,0,0,0,0,0,0,0,0,0,0,0,0,0,0,0,0,0,0,0,0,0,0,0,0,0,0,0,0,0,0,0,0,0,
0,0,0,0,0,0,0,0,0,0,0,0,0,0,0,0,0,0,0,0,0,0,0,0,0,0,0,0,0,0,0,0,0,0,0,0,0,0,0,0,0,0,0,0,0,0,0,0,0,0,
0,0,0,0,0,0,0,0,0,0,0,0,0,0,0,0,0,0,0,0,0,0,0,0,0,0,0,0,0,0,0,0,0,0,0,0,0,0,0,0,0,0,0,0,0,0,0,0,0,0,
0,0,0,0,0,0,0,0,0,0,0,0,0,0,0,0,0,0,0,0,0,0,0,0,0,0,0,0,0,0,0,0,0,0,0,0,0,0,0,0,0,0,0,0,0,0,0,0,0,0
</data>
 </layer>
 <objectgroup id="4" name="Objekti">
  <object id="352" name="PlayerBase" type="player_base" gid="8" x="820" y="6088" width="650" height="560"/>
  <object id="353" name="EnemyBase" type="enemy_base" gid="2147483656" x="6072" y="800" width="650" height="560"/>
  <object id="354" gid="7" x="350" y="1886" width="512" height="512"/>
  <object id="355" gid="7" x="354" y="2022" width="512" height="512"/>
  <object id="356" gid="7" x="492" y="1892" width="512" height="512"/>
  <object id="357" gid="7" x="487" y="2009" width="512" height="512"/>
  <object id="358" gid="7" x="360" y="2152" width="512" height="512"/>
  <object id="359" gid="7" x="490" y="2150" width="512" height="512"/>
  <object id="360" gid="7" x="353" y="2279" width="512" height="512"/>
  <object id="361" gid="7" x="492" y="2272" width="512" height="512"/>
  <object id="362" gid="7" x="365" y="2411" width="512" height="512"/>
  <object id="363" gid="7" x="489" y="2403" width="512" height="512"/>
  <object id="364" gid="7" x="370" y="2534" width="512" height="512"/>
  <object id="365" gid="7" x="499" y="2533" width="512" height="512"/>
  <object id="366" gid="7" x="358" y="2658" width="512" height="512"/>
  <object id="367" gid="7" x="485" y="2667" width="512" height="512"/>
  <object id="368" gid="7" x="353" y="2779" width="512" height="512"/>
  <object id="369" gid="7" x="488" y="2780" width="512" height="512"/>
  <object id="370" gid="7" x="365" y="2923" width="512" height="512"/>
  <object id="371" gid="7" x="505" y="2935" width="512" height="512"/>
  <object id="372" gid="7" x="360" y="3044" width="512" height="512"/>
  <object id="373" gid="7" x="512" y="3068" width="512" height="512"/>
  <object id="374" gid="7" x="372" y="3184" width="512" height="512"/>
  <object id="375" gid="7" x="501" y="3175" width="512" height="512"/>
  <object id="376" gid="7" x="365" y="3295" width="512" height="512"/>
  <object id="377" gid="7" x="497" y="3299" width="512" height="512"/>
  <object id="378" gid="7" x="357" y="3411" width="512" height="512"/>
  <object id="379" gid="7" x="494" y="3418" width="512" height="512"/>
  <object id="380" gid="7" x="361" y="3555" width="512" height="512"/>
  <object id="381" gid="7" x="479" y="3549" width="512" height="512"/>
  <object id="382" gid="7" x="343" y="3673" width="512" height="512"/>
  <object id="383" gid="7" x="493" y="3679" width="512" height="512"/>
  <object id="384" gid="7" x="380" y="3808" width="512" height="512"/>
  <object id="385" gid="7" x="498" y="3806" width="512" height="512"/>
  <object id="386" gid="7" x="357" y="3931" width="512" height="512"/>
  <object id="387" gid="7" x="501" y="3947" width="512" height="512"/>
  <object id="388" gid="7" x="350" y="4090" width="512" height="512"/>
  <object id="389" gid="7" x="503" y="4097" width="512" height="512"/>
  <object id="390" gid="7" x="2275" y="6117" width="512" height="512"/>
  <object id="391" gid="7" x="2273" y="6003" width="512" height="512"/>
  <object id="392" gid="7" x="2404" y="6004" width="512" height="512"/>
  <object id="393" gid="7" x="2407" y="6113" width="512" height="512"/>
  <object id="394" gid="7" x="2536" y="6100" width="512" height="512"/>
  <object id="395" gid="7" x="2546" y="5994" width="512" height="512"/>
  <object id="396" gid="7" x="2672" y="6128" width="512" height="512"/>
  <object id="397" gid="7" x="2663" y="5997" width="512" height="512"/>
  <object id="398" gid="7" x="2790" y="6110" width="512" height="512"/>
  <object id="399" gid="7" x="2798" y="5994" width="512" height="512"/>
  <object id="400" gid="7" x="2923" y="6109" width="512" height="512"/>
  <object id="401" gid="7" x="2926" y="5982" width="512" height="512"/>
  <object id="402" gid="7" x="3057" y="5995" width="512" height="512"/>
  <object id="403" gid="7" x="3064" y="6104" width="512" height="512"/>
  <object id="404" gid="7" x="3214" y="6126" width="512" height="512"/>
  <object id="405" gid="7" x="3193" y="6003" width="512" height="512"/>
  <object id="406" gid="7" x="3331" y="6009" width="512" height="512"/>
  <object id="407" gid="7" x="3335" y="6121" width="512" height="512"/>
  <object id="408" gid="7" x="3443" y="6113" width="512" height="512"/>
  <object id="409" gid="7" x="3434" y="6006" width="512" height="512"/>
  <object id="411" gid="7" x="3551" y="5989" width="512" height="512"/>
  <object id="412" gid="7" x="3550" y="6110" width="512" height="512"/>
  <object id="413" gid="7" x="3672" y="6116" width="512" height="512"/>
  <object id="414" gid="7" x="3681" y="5999" width="512" height="512"/>
  <object id="415" gid="7" x="3807" y="6105" width="512" height="512"/>
  <object id="416" gid="7" x="3815" y="5997" width="512" height="512"/>
  <object id="417" gid="7" x="3938" y="5986" width="512" height="512"/>
  <object id="418" gid="7" x="3944" y="6104" width="512" height="512"/>
  <object id="419" gid="7" x="4079" y="6097" width="512" height="512"/>
  <object id="420" gid="7" x="4059" y="5989" width="512" height="512"/>
  <object id="421" gid="7" x="4186" y="5970" width="512" height="512"/>
  <object id="422" gid="7" x="4206" y="6086" width="512" height="512"/>
  <object id="423" gid="7" x="4328" y="6084" width="512" height="512"/>
  <object id="424" gid="7" x="4317" y="5967" width="512" height="512"/>
  <object id="425" gid="7" x="4466" y="5978" width="512" height="512"/>
  <object id="426" gid="7" x="4603" y="5993" width="512" height="512"/>
  <object id="427" gid="7" x="4465" y="6111" width="512" height="512"/>
  <object id="428" gid="7" x="4600" y="6104" width="512" height="512"/>
  <object id="429" gid="7" x="4703" y="6117" width="512" height="512"/>
  <object id="430" gid="7" x="4702" y="6006" width="512" height="512"/>
  <object id="431" gid="7" x="338" y="4190" width="512" height="512"/>
  <object id="432" gid="7" x="491" y="4181" width="512" height="512"/>
  <object id="433" gid="7" x="4207" y="337" width="512" height="512"/>
  <object id="434" gid="7" x="4198" y="466" width="512" height="512"/>
  <object id="435" gid="7" x="6137" y="2291" width="512" height="512"/>
  <object id="436" gid="7" x="5993" y="2283" width="512" height="512"/>
  <object id="437" gid="7" x="5983" y="2397" width="512" height="512"/>
  <object id="438" gid="7" x="6142" y="2418" width="512" height="512"/>
  <object id="439" gid="7" x="5994" y="2538" width="512" height="512"/>
  <object id="440" gid="7" x="6125" y="2539" width="512" height="512"/>
  <object id="441" gid="7" x="5995" y="2669" width="512" height="512"/>
  <object id="442" gid="7" x="6142" y="2666" width="512" height="512"/>
  <object id="443" gid="7" x="6165" y="2815" width="512" height="512"/>
  <object id="444" gid="7" x="6012" y="2796" width="512" height="512"/>
  <object id="445" gid="7" x="5991" y="2945" width="512" height="512"/>
  <object id="446" gid="7" x="6161" y="2951" width="512" height="512"/>
  <object id="447" gid="7" x="5994" y="3090" width="512" height="512"/>
  <object id="448" gid="7" x="6136" y="3080" width="512" height="512"/>
  <object id="449" gid="7" x="6134" y="3222" width="512" height="512"/>
  <object id="450" gid="7" x="6005" y="3183" width="512" height="512"/>
  <object id="451" gid="7" x="5992" y="3308" width="512" height="512"/>
  <object id="452" gid="7" x="6130" y="3322" width="512" height="512"/>
  <object id="453" gid="7" x="5989" y="3419" width="512" height="512"/>
  <object id="454" gid="7" x="6130" y="3446" width="512" height="512"/>
  <object id="455" gid="7" x="6003" y="3549" width="512" height="512"/>
  <object id="456" gid="7" x="6126" y="3562" width="512" height="512"/>
  <object id="457" gid="7" x="5998" y="3674" width="512" height="512"/>
  <object id="458" gid="7" x="6124" y="3684" width="512" height="512"/>
  <object id="459" gid="7" x="6114" y="4774" width="512" height="512"/>
  <object id="460" gid="7" x="5965" y="4751" width="512" height="512"/>
  <object id="461" gid="7" x="6122" y="4630" width="512" height="512"/>
  <object id="462" gid="7" x="5976" y="4612" width="512" height="512"/>
  <object id="463" gid="7" x="6118" y="4522" width="512" height="512"/>
  <object id="464" gid="7" x="5991" y="3805" width="512" height="512"/>
  <object id="465" gid="7" x="6003" y="3957" width="512" height="512"/>
  <object id="466" gid="7" x="5995" y="4085" width="512" height="512"/>
  <object id="467" gid="7" x="5977" y="4207" width="512" height="512"/>
  <object id="468" gid="7" x="5983" y="4329" width="512" height="512"/>
  <object id="469" gid="7" x="5986" y="4478" width="512" height="512"/>
  <object id="470" gid="7" x="6110" y="3810" width="512" height="512"/>
  <object id="471" gid="7" x="6124" y="3948" width="512" height="512"/>
  <object id="472" gid="7" x="6107" y="4069" width="512" height="512"/>
  <object id="473" gid="7" x="6110" y="4194" width="512" height="512"/>
  <object id="474" gid="7" x="6118" y="4334" width="512" height="512"/>
  <object id="475" gid="7" x="6123" y="4437" width="512" height="512"/>
  <object id="476" gid="7" x="1759" y="357" width="512" height="512"/>
  <object id="477" gid="7" x="1766" y="474" width="512" height="512"/>
  <object id="478" gid="7" x="1889" y="359" width="512" height="512"/>
  <object id="479" gid="7" x="1888" y="476" width="512" height="512"/>
  <object id="480" gid="7" x="2033" y="355" width="512" height="512"/>
  <object id="481" gid="7" x="2017" y="483" width="512" height="512"/>
  <object id="482" gid="7" x="2140" y="352" width="512" height="512"/>
  <object id="483" gid="7" x="2142" y="474" width="512" height="512"/>
  <object id="484" gid="7" x="2286" y="362" width="512" height="512"/>
  <object id="485" gid="7" x="2281" y="483" width="512" height="512"/>
  <object id="486" gid="7" x="2412" y="356" width="512" height="512"/>
  <object id="487" gid="7" x="2397" y="475" width="512" height="512"/>
  <object id="488" gid="7" x="2543" y="345" width="512" height="512"/>
  <object id="489" gid="7" x="2541" y="471" width="512" height="512"/>
  <object id="490" gid="7" x="2675" y="361" width="512" height="512"/>
  <object id="491" gid="7" x="2662" y="470" width="512" height="512"/>
  <object id="492" gid="7" x="2791" y="353" width="512" height="512"/>
  <object id="493" gid="7" x="2786" y="474" width="512" height="512"/>
  <object id="494" gid="7" x="2912" y="476" width="512" height="512"/>
  <object id="495" gid="7" x="2917" y="351" width="512" height="512"/>
  <object id="496" gid="7" x="3037" y="347" width="512" height="512"/>
  <object id="497" gid="7" x="3040" y="476" width="512" height="512"/>
  <object id="498" gid="7" x="3169" y="483" width="512" height="512"/>
  <object id="499" gid="7" x="3169" y="351" width="512" height="512"/>
  <object id="500" gid="7" x="3301" y="347" width="512" height="512"/>
  <object id="501" gid="7" x="3420" y="344" width="512" height="512"/>
  <object id="502" gid="7" x="3562" y="354" width="512" height="512"/>
  <object id="503" gid="7" x="3677" y="335" width="512" height="512"/>
  <object id="504" gid="7" x="3792" y="328" width="512" height="512"/>
  <object id="505" gid="7" x="3940" y="336" width="512" height="512"/>
  <object id="506" gid="7" x="4073" y="355" width="512" height="512"/>
  <object id="507" gid="7" x="4075" y="473" width="512" height="512"/>
  <object id="508" gid="7" x="3934" y="486" width="512" height="512"/>
  <object id="509" gid="7" x="3812" y="488" width="512" height="512"/>
  <object id="510" gid="7" x="3690" y="490" width="512" height="512"/>
  <object id="511" gid="7" x="3572" y="496" width="512" height="512"/>
  <object id="512" gid="7" x="3447" y="485" width="512" height="512"/>
  <object id="513" gid="7" x="3296" y="488" width="512" height="512"/>
  <object id="514" gid="6" x="4432" y="976" width="512" height="512"/>
  <object id="515" gid="6" x="4413" y="1131" width="512" height="512"/>
  <object id="516" gid="6" x="4570" y="974" width="512" height="512"/>
  <object id="517" gid="6" x="4558" y="1122" width="512" height="512"/>
  <object id="518" gid="5" x="5062" y="1998" width="512" height="512"/>
  <object id="519" gid="5" x="5053" y="2151" width="512" height="512"/>
  <object id="520" gid="5" x="5212" y="2140" width="512" height="512"/>
  <object id="521" gid="5" x="5214" y="1994" width="512" height="512"/>
  <object id="522" gid="5" x="3408" y="840" width="512" height="512"/>
  <object id="523" gid="5" x="3395" y="989" width="512" height="512"/>
  <object id="524" gid="5" x="3558" y="986" width="512" height="512"/>
  <object id="525" gid="5" x="3548" y="840" width="512" height="512"/>
  <object id="526" gid="4" x="6057" y="1879" width="512" height="512"/>
  <object id="527" gid="4" x="4820" y="528" width="512" height="512"/>
  <object id="528" gid="4" x="6082" y="1758" width="512" height="512"/>
  <object id="529" gid="4" x="5911" y="1761" width="512" height="512"/>
  <object id="530" gid="4" x="5933" y="1907" width="512" height="512"/>
  <object id="531" gid="4" x="4822" y="670" width="512" height="512"/>
  <object id="532" gid="4" x="4980" y="540" width="512" height="512"/>
  <object id="533" gid="4" x="4986" y="666" width="512" height="512"/>
  <object id="534" gid="5" x="853" y="4307" width="512" height="512"/>
  <object id="535" gid="5" x="1005" y="4315" width="512" height="512"/>
  <object id="536" gid="5" x="861" y="4451" width="512" height="512"/>
  <object id="537" gid="5" x="999" y="4449" width="512" height="512"/>
  <object id="538" gid="6" x="1884" y="5444" width="512" height="512"/>
  <object id="539" gid="6" x="2043" y="5449" width="512" height="512"/>
  <object id="540" gid="6" x="1878" y="5602" width="512" height="512"/>
  <object id="541" gid="6" x="2048" y="5600" width="512" height="512"/>
  <object id="542" gid="4" x="1761" y="6091" width="512" height="512"/>
  <object id="543" gid="4" x="1746" y="5958" width="512" height="512"/>
  <object id="544" gid="4" x="1922" y="5966" width="512" height="512"/>
  <object id="545" gid="4" x="1938" y="6102" width="512" height="512"/>
  <object id="546" gid="4" x="743" y="4949" width="512" height="512"/>
  <object id="547" gid="4" x="893" y="4947" width="512" height="512"/>
  <object id="548" gid="4" x="741" y="4795" width="512" height="512"/>
  <object id="549" gid="4" x="887" y="4797" width="512" height="512"/>
  <object id="550" gid="4" x="1076.83" y="3285.17" width="512" height="512"/>
  <object id="551" gid="4" x="1035.17" y="2443.5" width="512" height="512"/>
  <object id="552" gid="4" x="2372.67" y="4922.67" width="512" height="512"/>
  <object id="553" gid="4" x="3701.83" y="5043.5" width="512" height="512"/>
  <object id="554" gid="4" x="2993.5" y="3718.5" width="512" height="512"/>
  <object id="555" gid="4" x="3793.5" y="2851.83" width="512" height="512"/>
  <object id="556" gid="4" x="2456" y="2422.67" width="512" height="512"/>
  <object id="557" gid="4" x="2510.17" y="1185.17" width="512" height="512"/>
  <object id="558" gid="4" x="4085.17" y="2443.5" width="512" height="512"/>
  <object id="559" gid="4" x="5031" y="3731" width="512" height="512"/>
  <object id="560" gid="4" x="4906" y="4989.33" width="512" height="512"/>
  <object id="561" gid="5" x="1626.83" y="1951.83" width="512" height="512"/>
  <object id="562" gid="5" x="1931" y="1214.33" width="512" height="512"/>
  <object id="563" gid="5" x="806" y="1972.67" width="512" height="512"/>
  <object id="564" gid="5" x="772.667" y="3739.33" width="512" height="512"/>
  <object id="565" gid="5" x="1606" y="4139.33" width="512" height="512"/>
  <object id="566" gid="5" x="2906" y="5072.67" width="512" height="512"/>
  <object id="567" gid="5" x="4118.5" y="5443.5" width="512" height="512"/>
  <object id="568" gid="5" x="5006" y="4156" width="512" height="512"/>
  <object id="569" gid="5" x="2835.17" y="2843.5" width="512" height="512"/>
  <object id="570" gid="5" x="1606" y="2872.67" width="512" height="512"/>
  <object id="571" gid="5" x="3506" y="1460.55" width="512" height="427.152"/>
  <object id="572" gid="5" x="5085.17" y="2860.17" width="512" height="512"/>
  <object id="573" gid="5" x="5626.83" y="3685.17" width="512" height="512"/>
  <object id="574" gid="6" x="4147.67" y="3731" width="512" height="512"/>
  <object id="575" gid="6" x="3731" y="3781" width="512" height="512"/>
  <object id="576" gid="6" x="2835.17" y="1543.5" width="512" height="512"/>
  <object id="577" gid="6" x="1972.67" y="2472.67" width="512" height="512"/>
  <object id="578" gid="6" x="2385.17" y="3710.17" width="512" height="512"/>
  <object id="579" gid="6" x="2360.17" y="4268.5" width="512" height="512"/>
  <object id="580" gid="6" x="2876.83" y="5651.83" width="512" height="512"/>
  <object id="581" gid="6" x="1956" y="772.667" width="512" height="512"/>
  <object id="582" gid="6" x="2856" y="756" width="512" height="512"/>
  <object id="583" gid="6" x="4310.17" y="1801.83" width="512" height="512"/>
  <object id="584" gid="6" x="5597.67" y="2897.67" width="512" height="512"/>
  <object id="585" gid="7" x="1456" y="5972.67" width="512" height="512"/>
  <object id="586" gid="7" x="551.833" y="5160.17" width="512" height="512"/>
  <object id="587" gid="7" x="447.667" y="4531" width="512" height="512"/>
  <object id="588" gid="7" x="1506" y="5389.33" width="512" height="512"/>
  <object id="589" gid="7" x="1510.17" y="4801.83" width="512" height="512"/>
  <object id="590" gid="7" x="1201.83" y="4026.83" width="512" height="512"/>
  <object id="591" gid="7" x="885.167" y="3393.5" width="512" height="512"/>
  <object id="592" gid="7" x="1289.33" y="3672.67" width="512" height="512"/>
  <object id="593" gid="7" x="1272.67" y="2972.67" width="512" height="512"/>
  <object id="594" gid="7" x="843.5" y="2851.83" width="512" height="512"/>
  <object id="595" gid="7" x="739.333" y="2222.67" width="512" height="512"/>
  <object id="596" gid="7" x="1206" y="1939.33" width="512" height="512"/>
  <object id="597" gid="7" x="1235.17" y="2326.83" width="512" height="512"/>
  <object id="598" gid="7" x="1672.67" y="2522.67" width="512" height="512"/>
  <object id="599" gid="7" x="2010.17" y="2101.83" width="512" height="512"/>
  <object id="600" gid="7" x="1843.5" y="1551.83" width="512" height="512"/>
  <object id="601" gid="7" x="2351.83" y="1526.83" width="512" height="512"/>
  <object id="602" gid="7" x="2551.83" y="1860.17" width="512" height="512"/>
  <object id="603" gid="7" x="2151.83" y="2976.83" width="512" height="512"/>
  <object id="604" gid="7" x="2489.33" y="2906" width="512" height="512"/>
  <object id="605" gid="7" x="1856" y="3356" width="512" height="512"/>
  <object id="606" gid="7" x="1551.83" y="3726.83" width="512" height="512"/>
  <object id="607" gid="7" x="2122.67" y="3772.67" width="512" height="512"/>
  <object id="608" gid="7" x="2493.5" y="4118.5" width="512" height="512"/>
  <object id="609" gid="7" x="1947.67" y="4514.33" width="512" height="512"/>
  <object id="610" gid="7" x="2176.83" y="5035.17" width="512" height="512"/>
  <object id="611" gid="7" x="2485.17" y="5410.17" width="512" height="512"/>
  <object id="612" gid="7" x="2881" y="5331" width="512" height="512"/>
  <object id="613" gid="7" x="3606" y="5539.33" width="512" height="512"/>
  <object id="614" gid="7" x="3239.33" y="4906" width="512" height="512"/>
  <object id="615" gid="7" x="2926.83" y="4185.17" width="512" height="512"/>
  <object id="616" gid="7" x="3614.33" y="4081" width="512" height="512"/>
  <object id="617" gid="7" x="3439.33" y="4556" width="512" height="512"/>
  <object id="618" gid="7" x="4189.33" y="4956" width="512" height="512"/>
  <object id="619" gid="7" x="4139.33" y="4139.33" width="512" height="512"/>
  <object id="620" gid="7" x="4739.33" y="4439.33" width="512" height="512"/>
  <object id="621" gid="7" x="5093.5" y="4735.17" width="512" height="512"/>
  <object id="622" gid="7" x="4589.33" y="5039.33" width="512" height="512"/>
  <object id="623" gid="7" x="4556" y="5606" width="512" height="512"/>
  <object id="624" gid="7" x="5422.67" y="4656" width="512" height="512"/>
  <object id="625" gid="7" x="5443.5" y="4035.17" width="512" height="512"/>
  <object id="626" gid="7" x="5631" y="4497.67" width="512" height="512"/>
  <object id="627" gid="7" x="4464.33" y="3364.33" width="512" height="512"/>
  <object id="628" gid="7" x="4068.5" y="3460.17" width="512" height="512"/>
  <object id="629" gid="7" x="3526.83" y="3385.17" width="512" height="512"/>
  <object id="630" gid="7" x="3001.83" y="3326.83" width="512" height="512"/>
  <object id="631" gid="7" x="3518.5" y="2910.17" width="512" height="512"/>
  <object id="632" gid="7" x="3139.33" y="2822.67" width="512" height="512"/>
  <object id="633" gid="7" x="2901.83" y="2426.83" width="512" height="512"/>
  <object id="634" gid="7" x="2872.67" y="1956" width="512" height="512"/>
  <object id="635" gid="7" x="3306" y="1639.33" width="512" height="512"/>
  <object id="636" gid="7" x="3918.12" y="1977.22" width="512" height="512"/>
  <object id="637" gid="7" x="3210.17" y="2051.83" width="512" height="512"/>
  <object id="638" gid="7" x="3081" y="2397.67" width="512" height="512"/>
  <object id="639" gid="7" x="3506" y="2439.33" width="512" height="512"/>
  <object id="640" gid="7" x="3635.17" y="2126.83" width="512" height="512"/>
  <object id="641" gid="7" x="4218.5" y="2876.83" width="512" height="512"/>
  <object id="642" gid="7" x="4681" y="2947.67" width="512" height="512"/>
  <object id="643" gid="7" x="4889.33" y="3406" width="512" height="512"/>
  <object id="644" gid="7" x="5393.5" y="3335.17" width="512" height="512"/>
  <object id="645" gid="7" x="4968.5" y="2476.83" width="512" height="512"/>
  <object id="646" gid="7" x="4481.38" y="2389.71" width="512" height="512"/>
  <object id="647" gid="7" x="3901.07" y="1424.56" width="512" height="512"/>
  <object id="648" gid="7" x="2989.33" y="1172.67" width="512" height="512"/>
  <object id="649" gid="7" x="2235.17" y="743.5" width="512" height="512"/>
  <object id="650" gid="7" x="3951.08" y="827.591" width="512" height="512"/>
  <object id="651" gid="7" x="4095.78" y="1258.65" width="512" height="512"/>
  <object id="652" gid="7" x="5014.33" y="1131" width="512" height="512"/>
  <object id="653" gid="7" x="4543.5" y="551.833" width="512" height="512"/>
  <object id="654" gid="7" x="5356" y="472.667" width="512" height="512"/>
  <object id="655" gid="7" x="5431" y="1181" width="512" height="512"/>
  <object id="656" gid="7" x="6110.17" y="1235.17" width="512" height="512"/>
  <object id="657" gid="7" x="6101.83" y="1543.5" width="512" height="512"/>
  <object id="658" gid="7" x="5535.17" y="1726.83" width="512" height="512"/>
  <object id="659" gid="7" x="5614.33" y="2514.33" width="512" height="512"/>
  <object id="660" gid="7" x="4847.67" y="1597.67" width="512" height="512"/>
  <object id="661" gid="7" x="4676.83" y="1951.83" width="512" height="512"/>
  <object id="662" gid="7" x="2401.83" y="3360.17" width="512" height="512"/>
  <object id="663" gid="7" x="4631" y="3764.33" width="512" height="512"/>
  <object id="664" gid="7" x="1656" y="668.121" width="512" height="512"/>
  <object id="665" gid="7" x="1489.33" y="792.364" width="512" height="512"/>
  <object id="666" gid="7" x="1612.06" y="942.364" width="512" height="512"/>
  <object id="667" gid="7" x="1369.64" y="990.848" width="512" height="512"/>
  <object id="668" gid="7" x="1498.42" y="1128.73" width="512" height="512"/>
  <object id="669" gid="7" x="1212.06" y="1148.42" width="512" height="512"/>
  <object id="670" gid="7" x="1363.58" y="1342.36" width="512" height="512"/>
  <object id="671" gid="7" x="1056" y="1365.09" width="512" height="512"/>
  <object id="672" gid="7" x="1224.18" y="1487.82" width="512" height="512"/>
  <object id="673" gid="7" x="919.636" y="1489.33" width="512" height="512"/>
  <object id="674" gid="7" x="1066.61" y="1639.33" width="512" height="512"/>
  <object id="675" gid="7" x="742.364" y="1581.76" width="512" height="512"/>
  <object id="676" gid="7" x="516.606" y="1637.82" width="512" height="512"/>
  <object id="677" gid="7" x="884.788" y="1827.21" width="512" height="512"/>
  <object id="678" gid="7" x="1543.88" y="1646.91" width="512" height="512"/>
  <object id="679" gid="7" x="5769.64" y="4899.94" width="512" height="512"/>
  <object id="680" gid="7" x="5463.58" y="4896.91" width="512" height="512"/>
  <object id="681" gid="7" x="5202.97" y="5006" width="512" height="512"/>
  <object id="682" gid="7" x="5015.09" y="5254.48" width="512" height="512"/>
  <object id="683" gid="7" x="4801.45" y="5395.39" width="512" height="512"/>
  <object id="684" gid="7" x="4845.39" y="5672.67" width="512" height="512"/>
  <object id="685" gid="7" x="4998.42" y="5640.85" width="512" height="512"/>
  <object id="686" gid="7" x="5254.48" y="5378.73" width="512" height="512"/>
  <object id="687" gid="7" x="5219.64" y="5207.52" width="512" height="512"/>
  <object id="688" gid="7" x="5504.48" y="5140.85" width="512" height="512"/>
  <object id="689" gid="7" x="5636.3" y="4996.91" width="512" height="512"/>
  <object id="690" gid="7" x="5063.58" y="5472.67" width="512" height="512"/>
  <object id="691" gid="7" x="4742.36" y="4654.48" width="512" height="512"/>
  <object id="692" gid="7" x="5322.67" y="4231.76" width="512" height="512"/>
  <object id="693" gid="7" x="4530.24" y="3860.55" width="512" height="512"/>
  <object id="694" gid="7" x="4251.45" y="4363.58" width="512" height="512"/>
  <object id="695" gid="7" x="3830.24" y="4457.52" width="512" height="512"/>
  <object id="696" gid="7" x="3331.76" y="4162.06" width="512" height="512"/>
  <object id="697" gid="7" x="3228.73" y="3452.97" width="512" height="512"/>
  <object id="698" gid="7" x="2237.82" y="1946.91" width="512" height="512"/>
  <object id="699" gid="7" x="2230.24" y="1130.24" width="512" height="512"/>
  <object id="700" gid="7" x="3799.94" y="4742.36" width="512" height="512"/>
  <object id="701" gid="7" x="3212.06" y="5439.33" width="512" height="512"/>
  <object id="702" gid="7" x="3442.36" y="5681.76" width="512" height="512"/>
  <object id="703" gid="7" x="2736.3" y="4660.55" width="512" height="512"/>
  <object id="704" gid="7" x="2128.73" y="4352.97" width="512" height="512"/>
  <object id="705" gid="7" x="1898.42" y="3862.06" width="512" height="512"/>
  <object id="706" gid="7" x="1542.36" y="3339.33" width="512" height="512"/>
  <object id="707" gid="7" x="2963.58" y="4451.45" width="512" height="512"/>
  <object id="708" gid="7" x="2646.91" y="3410.55" width="512" height="512"/>
  <object id="709" gid="7" x="4163.58" y="4530.24" width="512" height="512"/>
 </objectgroup>
</map>
